!!!COM: Corelli, Arcangelo
!!!OTL: Sonate a tre [in A]
!!!XEN: Trio Sonata Opus 1, No. 3
!!!OPS: Opus 1
!!!ONM: No. 3
!!!OMV: Movement 3.
!!!YEC: Copyright 1994, Center for Computer Assisted Research in the Humanities
!!!YEM: Rights to all derivative electronic formats reserved.
!!!YEM: Refer to licensing agreement for further details.
!! For the following instrumentation: Violino I & II, Violone/Archlute,
!!    and Organo.
!! Allegro.
**kern	**kern	**kern	**kern
*ICklav	*ICstr	*ICstr	*ICstr
*Iorgan	*Icello	*Ivioln	*Ivioln
*	*Iarchl	*	*
!Organo	!Violone	!Violin 2	!Violin 1
!	! or	!	!
!	!Archlute	!	!
*>[A,A]	*>[A,A]	*>[A,A]	*>[A,A]
*>A	*>A	*>A	*>A
*clefF4	*clefF4	*clefG2	*clefG2
*k[f#c#]	*k[f#c#]	*k[f#c#]	*k[f#c#]
*A:	*A:	*A:	*A:
*M3/4	*M3/4	*M3/4	*M3/4
*MM102	*MM102	*MM102	*MM102
=1-	=1-	=1-	=1-
2.AA/	2.r	2.r	2a/
.	.	.	4aa\
=2	=2	=2	=2
2E\	2.r	2.r	8gg#\L
.	.	.	8ff#\
.	.	.	8ee\
.	.	.	8dd\J
4A\	.	.	4cc#\
=3	=3	=3	=3
4F#\	2.r	2.r	4dd\
4G#\	.	.	(8ee\L
.	.	.	8dd\J)
4A\	.	.	4cc#\
=4	=4	=4	=4
2E\	2.r	2.r	2b\
4AA/	.	.	4a/
=5	=5	=5	=5
4c#\	2.r	2.r	2aa\
4B\	.	.	.
4A\	.	.	4r
=6	=6	=6	=6
4G#\	2.r	2.r	2bb\
4F#\	.	.	.
4E\	.	.	4r
=7	=7	=7	=7
2A\	2.r	2.r	8ccc#\L
.	.	.	8ddd\
.	.	.	8ccc#\
.	.	.	8bb\J
4A\	.	.	4aa\
=8	=8	=8	=8
4.G#\	2.r	2e/	2eee\
8F#\	.	.	.
4E\	.	4ee\	4gg#\
=9	=9	=9	=9
2B\	2.r	8dd#\L	8ff#\L
.	.	8cc#\	8ee\
.	.	8b\	8dd#\
.	.	8a\J	8cc#\J
4B\	.	4g#/	4b\
=10	=10	=10	=10
2A\	2.r	4a/	4cc#\
.	.	(8b/L	4dd#\
.	.	8a/J)	.
4E\	.	4g#/	4ee\
=11	=11	=11	=11
2B\	2.r	2f#/	2dd#\
4E\	.	4e/	4ee\
=12	=12	=12	=12
2E\	2.r	2ee\	8g#/L
.	.	.	8a/
.	.	.	8g#/
.	.	.	8f#/J
4C#/	.	4r	4e/
=13	=13	=13	=13
2D\	2.r	2ff#\	8a/L
.	.	.	8b/
.	.	.	8a/
.	.	.	8g#/J
4D#\	.	4r	4f#/
=14	=14	=14	=14
4.E\	2.r	8gg#\L	8b\L
.	.	8aa\	8cc#\
.	.	8gg#\	8b\
8F#\	.	8ff#\J	8a\J
4G#\	.	4ee\	4g#/
=15	=15	=15	=15
2AA/	2AA/	2aa\	8cc#\L
.	.	.	8dd\
.	.	.	8cc#\
.	.	.	8b\J
4A\	4A\	4cc#\	4a/
=16	=16	=16	=16
8G#\L	8G#\L	8b/L	2ee\
8F#\	8F#\	8a/	.
8E\	8E\	8g#/	.
8D\J	8D\J	8f#/J	.
4C#/	4C#/	4e/	4aa\
=17	=17	=17	=17
4D\	4D\	4a/	4ff#\
8E\L	8E\L	4r	4gg#\
8D\J	8D\J	.	.
4C#/	4C#/	4ee\	4aa\
=18	=18	=18	=18
2BB/	2BB/	2dd\	2gg#\
4AA/	4AA/	4cc#\	4aa\
=19	=19	=19	=19
2A\	2A\	8cc#\L	8ee\L
.	.	8dd\	8ff#\
.	.	8cc#\	8ee\
.	.	8b\J	8dd\J
4r	4r	4a/	4cc#\
=20	=20	=20	=20
2B\	2B\	8dd\L	8ff#\L
.	.	8ee\	8gg\
.	.	8dd\	8ff#\
.	.	8cc#\J	8ee\J
4r	4r	4b\	4dd\
=21	=21	=21	=21
8c#\L	8c#\L	8ee\L	2cc#\
8d\	8d\	8ff#\	.
8c#\	8c#\	8ee\	.
8B\J	8B\J	8dd\J	.
4A\	4A\	4cc#\	4r
=22	=22	=22	=22
2G#\	2G#\	8b\L	2e/
.	.	8cc#\	.
.	.	8b\	.
.	.	8a\J	.
4E\	4E\	4g#/	4ee\
=23	=23	=23	=23
2B\	2B\	4f#/	8dd#\L
.	.	.	8cc#\
.	.	(8g#/L	8b\
.	.	8a/J)	8a\J
4E\	4E\	4b\	4g#/
=24	=24	=24	=24
2A\	2A\	4cc#\	4a/
.	.	(8dd\L	(8b/L
.	.	8cc#\J)	8a/J)
4E\	4E\	4b\	4g#/
=25	=25	=25	=25
2BB/	2BB/	2a/	2f#/
4E\	4E\	4g#/	4e/
=26	=26	=26	=26
2AA/	2AA/	8cc#\L	2ee\
.	.	8dd\	.
.	.	8cc#\	.
.	.	8b\J	.
4A\	4A\	4a/	4r
=27	=27	=27	=27
2F#\	2F#\	8dd\L	2ff#\
.	.	8ee\	.
.	.	8dd\	.
.	.	8cc#\J	.
4G#\	4G#\	4b\	4r
=28	=28	=28	=28
2E\	2E\	8ee\L	8gg#\L
.	.	8ff#\	8aa\
.	.	8ee\	8gg#\
.	.	8dd\J	8ff#\J
4A\	4A\	4cc#\	4ee\
=29	=29	=29	=29
2F#\	2F#\	2a/	8aa\L
.	.	.	8bb\
.	.	.	8aa\
.	.	.	8gg#\J
4D\	4D\	4aa\	4ff#\
=30	=30	=30	=30
2E\	2E\	8gg#\L	8ee\L
.	.	8ff#\	8dd\
.	.	8ee\	8cc#\
.	.	8dd\J	8b\J
4F#\	4F#\	4cc#\	4a/
=31	=31	=31	=31
2D\	2D\	4dd\	4b\
.	.	(8ee\L	(8cc#\L
.	.	8dd\J)	8b\J)
4AA/	4AA/	4cc#\	4a/
=32	=32	=32	=32
2E\	2E\	2b\	2g#/
4AA/	4AA/	4a/	4a/
=33	=33	=33	=33
[2.AA/	2.r	2.cc#\	2.ee\
=34	=34	=34	=34
2.AA/]	2.r	2.ddT\	2.ff#T\
=35	=35	=35	=35
2A\	2A\	8cc#\L	8ee\L
.	.	8dd\	8ff#\
.	.	8cc#\	8ee\
.	.	8b\J	8dd\J
4AA/	4AA/	4a/	4cc#\
=36	=36	=36	=36
2D\	2D\	4b\	4dd\
.	.	(8cc#\L	(8ee\L
.	.	8b\J)	8dd\J)
4AA/	4AA/	4a/	4cc#\
=37	=37	=37	=37
2E\	2E\	2g#/	2b\
4AA/	4AA/	4a/	4a/
=38	=38	=38	=38
2.r	2.r	2.r	2aa\
.	.	.	4a/
=39	=39	=39	=39
2.r	2.r	2.r	8b\L
.	.	.	8cc#\
.	.	.	8dd\
.	.	.	8ee\J
.	.	.	4ff#\
=40	=40	=40	=40
2.r	2.r	2.r	4ee\
.	.	.	(8a/L
.	.	.	8b/J)
.	.	.	4cc#\
=41	=41	=41	=41
2.r	2.r	2.r	2b\
.	.	.	4a/
=42	=42	=42	=42
2.r	2.r	2ee\	2gg#\
.	.	4e/	4g#/
=43	=43	=43	=43
2.r	2.r	8f#/L	8a\L
.	.	8g#/	8b\
.	.	8a/	8cc#\
.	.	8b/J	8dd\J
.	.	4cc#\	4ee\
=44	=44	=44	=44
2.r	2.r	4b\	4dd#\
.	.	(8e/L	(8gg#\L
.	.	8f#/J)	8ff#\J)
.	.	4g#/	4ee\
=45	=45	=45	=45
2.r	2.r	2f#/	2dd#\
.	.	4e/	4ee\
=46	=46	=46	=46
2.r	2.r	2ee\	8gg#\L
.	.	.	8ee\
.	.	.	8ff#\
.	.	.	8gg#\
.	.	4r	8aa\
.	.	.	8gg#\J
=47	=47	=47	=47
2.r	2.r	2dd\	8ff#\L
.	.	.	8dd\
.	.	.	8ee\
.	.	.	8ff#\
.	.	4r	8gg#\
.	.	.	8ff#\J
=48	=48	=48	=48
2.r	2.r	2cc#\	8ee\L
.	.	.	8cc#\
.	.	.	8dd\
.	.	.	8ee\
.	.	4r	8ff#\
.	.	.	8ee\J
=49	=49	=49	=49
2.r	2.r	2b\	8dd\L
.	.	.	8b\
.	.	.	8cc#\
.	.	.	8dd\
.	.	4r	8ee\
.	.	.	8dd\J
=50	=50	=50	=50
2A\	2A\	2a/	2cc#\
4AA/	4AA/	4cc#\	4ee\
=51	=51	=51	=51
8BB/L	8BB/L	2b\	8dd\L
8C#/	8C#/	.	8ee\
8D/	8D/	.	8ff#\
8E/J	8E/J	.	8gg#\J
4F#\	4F#\	4a/	4aa\
=52	=52	=52	=52
4E\	4E\	4b\	4gg#\
8AA/L	8AA/L	4cc#\	4aa\
8BB/J	8BB/J	.	.
4C#/	4C#/	4aa\	4ee\
=53	=53	=53	=53
2BB/	2BB/	2gg#t\	2ddT\
4AA/	4AA/	4aa\	4cc#\
=54	=54	=54	=54
2A\	2A\	8cc#\L	2ee\
.	.	8a\	.
.	.	8b\	.
.	.	8cc#\	.
4r	4r	8dd\	4r
.	.	8cc#\J	.
=55	=55	=55	=55
2G#\	2G#\	8b\L	2ee\
.	.	8g#\	.
.	.	8a\	.
.	.	8b\	.
4r	4r	8cc#\	4r
.	.	8b\J	.
=56	=56	=56	=56
2.F#\	2.F#\	8a/L	2ee\
.	.	8f#/	.
.	.	8g#/	.
.	.	8a/	.
.	.	8b/	4dd#\
.	.	8a/J	.
=57	=57	=57	=57
2E\	2E\	2g#/	8ee/L
.	.	.	8e/
.	.	.	8f#/
.	.	.	8g#/
4C#/	4C#/	4r	8a/
.	.	.	8g#/J
=58	=58	=58	=58
2D\	2D\	8aa\L	2f#/
.	.	8a\	.
.	.	8b\	.
.	.	8cc#\	.
4BB/	4BB/	8dd\	4r
.	.	8cc#\J	.
=59	=59	=59	=59
2.E\	2.E\	2b\	8bb\L
.	.	.	8b\
.	.	.	8cc#\
.	.	.	8dd\
.	.	4r	8ee\
.	.	.	8dd\J
=60	=60	=60	=60
2.AA/	2.AA/	8ee/L	2cc#\
.	.	8e/	.
.	.	8f#/	.
.	.	8g#/	.
.	.	8a/	4r
.	.	8g#/J	.
=61	=61	=61	=61
[4D\	[4D\	8f#/L	8aa\L
.	.	8f#/	8a\
2D\]	2D\]	8g#/	8b\
.	.	8a/	8cc#\
.	.	8b/	8dd\
.	.	8a/J	8cc#\J
=62	=62	=62	=62
[4E\	[4E\	2g#/	4b\
2E\]	2E\]	.	[2cc#\
.	.	4e/	.
=63	=63	=63	=63
[4F#\	[4F#\	2a/	4cc#\]
2F#\]	2F#\]	.	[2dd\
.	.	4f#/	.
=64	=64	=64	=64
2G#\	2G#\	2b\	4dd\]
.	.	.	[2ee\
4E\	4E\	4g#/	.
=65	=65	=65	=65
2A\	2A\	2cc#\	4ee\]
.	.	.	4a/
4F#\	4F#\	4a/	4aa\
=66	=66	=66	=66
2D\	2D\	2ddT\	2ff#T\
4AA/	4AA/	4cc#\	4ee\
=67	=67	=67	=67
2E\	2E\	2bT\	2ddT\
4AA/	4AA/	4a/	4cc#\
=68	=68	=68	=68
4A\	4A\	2cc#\	4ee\
2C#/	2C#/	.	[2aa\
.	.	4r	.
=69	=69	=69	=69
4D\	4D\	2bb\	4aa\]
2E\	2E\	.	[2gg#\
.	.	4ccc#\	.
=70	=70	=70	=70
4C#/	4C#/	2aa\	4gg#\]
2D\	2D\	.	[2ff#\
.	.	4bb\	.
=71	=71	=71	=71
4BB/	4BB/	2gg#\	4ff#\]
2C#/	2C#/	.	2ee#\
.	.	4aa\	.
=72	=72	=72	=72
2.F#\	2.F#\	2ff#\	8ff#\L
.	.	.	8cc#\
.	.	.	8dd\
.	.	.	8ee\
.	.	4r	8ff#\
.	.	.	8ee\J
=73	=73	=73	=73
2.BB/	2.BB/	8bb\L	2.dd#\
.	.	8ff#\	.
.	.	8gg#\	.
.	.	8aa\	.
.	.	8bb\	.
.	.	8aa\J	.
=74	=74	=74	=74
2.E\	2.E\	2.gg#\	8ee\L
.	.	.	8b\
.	.	.	8cc#\
.	.	.	8dd\
.	.	.	8ee\
.	.	.	8dd\J
=75	=75	=75	=75
2.A\	2.A\	2.ee\	8cc#\L
.	.	.	8a\
.	.	.	8b\
.	.	.	8cc#\
.	.	.	8dd\
.	.	.	8cc#\J
=76	=76	=76	=76
2.G#\	2.G#\	2.ee\	8b\L
.	.	.	8g#\
.	.	.	8a\
.	.	.	8b\
.	.	.	8cc#\
.	.	.	8b\J
=77	=77	=77	=77
2.F#\	2.F#\	2ee\	8a/L
.	.	.	8f#/
.	.	.	8g#/
.	.	.	8a/
.	.	4dd#\	8b/
.	.	.	8a/J
=78	=78	=78	=78
2.E\	2.E\	2e/	2g#/
.	.	4ee\	4gg#\
=79	=79	=79	=79
2BB/	2BB/	8dd#\L	8ff#\L
.	.	8cc#\	8ee\
.	.	8b\	8dd#\
.	.	8a\J	8cc#\J
4B\	4B\	4g#/	4b\
=80	=80	=80	=80
2A\	2A\	4a/	4cc#\
.	.	(8b/L	(8dd\L
.	.	8a/J)	8cc#\J)
4E\	4E\	4g#/	4b\
=81	=81	=81	=81
2B\	2B\	2f#/	2a/
4E\	4E\	4e/	4g#/
=82	=82	=82	=82
2.A\	2.A\	2ee\	8cc#\L
.	.	.	8dd\
.	.	.	8cc#\
.	.	.	8b\J
.	.	4r	4a/
=83	=83	=83	=83
2F#\	2F#\	2ff#\	8dd\L
.	.	.	8ee\
.	.	.	8dd\
.	.	.	8cc#\J
4G#\	4G#\	4r	4b\
=84	=84	=84	=84
2E\	2E\	8gg#\L	8ee\L
.	.	8aa\	8ff#\
.	.	8gg#\	8ee\
.	.	8ff#\J	8dd\J
4A\	4A\	4ee\	4cc#\
=85	=85	=85	=85
2F#\	2F#\	8aa\L	2a/
.	.	8bb\	.
.	.	8aa\	.
.	.	8gg#\J	.
4D\	4D\	4ff#\	4aa\
=86	=86	=86	=86
2E\	2E\	8ee\L	8gg#\L
.	.	8dd\	8ff#\
.	.	8cc#\	8ee\
.	.	8b\J	8dd\J
4F#\	4F#\	4a/	4cc#\
=87	=87	=87	=87
2D\	2D\	4b\	4dd\
.	.	(8cc#\L	(8ee\L
.	.	8b\J)	8dd\J)
4AA/	4AA/	4a/	4cc#\
=88	=88	=88	=88
2E\	2E\	2g#/	2b\
4AA/	4AA/	4a/	4a/
=89	=89	=89	=89
2.A\	2.A\	2ee\	8cc#\L
.	.	.	8dd\
.	.	.	8cc#\
.	.	.	8b\J
.	.	4r	4a/
=90	=90	=90	=90
2F#\	2F#\	2ff#\	8dd\L
.	.	.	8ee\
.	.	.	8dd\
.	.	.	8cc#\J
4G#\	4G#\	4r	4b\
=91	=91	=91	=91
2E\	2E\	8gg#\L	8ee\L
.	.	8aa\	8ff#\
.	.	8gg#\	8ee\
.	.	8ff#\J	8dd\J
4A\	4A\	4ee\	4cc#\
=92	=92	=92	=92
2F#\	2F#\	8aa\L	2a/
.	.	8bb\	.
.	.	8aa\	.
.	.	8gg#\J	.
4D\	4D\	4ff#\	4aa\
=93	=93	=93	=93
2E\	2E\	8ee\L	8gg#\L
.	.	8dd\	8ff#\
.	.	8cc#\	8ee\
.	.	8b\J	8dd\J
4F#\	4F#\	4a/	4cc#\
=94	=94	=94	=94
2D\	2D\	4b\	4dd\
.	.	(8cc#\L	(8ee\L
.	.	8b\J)	8dd\J)
4AA/	4AA/	4a/	4cc#\
=95	=95	=95	=95
2E\	2E\	2g#/	2b\
4AA/	4AA/	4a/	4a/
=96	=96	=96	=96
2.r	2.r	4b\	4dd\
.	.	(8cc#\L	(8ee\L
.	.	8b\J)	8dd\J)
.	.	4a/	4cc#\
=97	=97	=97	=97
2E\	2E\	2g#/	2b\
4AA/	4AA/	4a/	4a/
==	==	==	==
*-	*-	*-	*-
!!!CDT: 1653/2/17/-1713/1/8
!!!OCY: Italia
!!!ODE: Queen Christina Alexandra of Sweden
!!!ODT: 1681//
!!!OPC: Roma; Rome
!!!AGN: trio sonata
!!!AST: baroque, chamber
!!!AMT: simple triple
!!!YOR1: J. Joachim & F. Chrysander (eds.) Les Oeuvre de Arcangelo Corelli
!!!YOR2: London: Augener & Co. 1871
!!!YOY: 1871
!!!AIN: archl cello organ violn
!!!EEV: 1.1
!!!RDT: 1993 August 19
!!!YER: 1994 December 14
!!!EMD: 1996 July 9
!!!YEN: United States of America
!!!EFL: 3/3
!!!ENC: Frances Bennion & Steven Rasmussen
!!!EED: W.B. Hewlett
!!!VTS: 382692940
